Newaita/actions/32/mail-mark-important.svg

<svg height="32" viewBox="0 0 32 32" width="32" xmlns="http://www.w3.org/2000/svg"><g fill="#424242"><path d="m5.292969 5.542969c-1.464844 0-2.648438 1.179687-2.648438 2.644531v15.878906c0 1.464844 1.183594 2.644532 2.648438 2.644532h15.875v-2.644532h-14.554688c-.730469 0-1.320312-.589844-1.320312-1.324218v-13.230469c0-.734375.589843-1.324219 1.320312-1.324219h18.523438c.734375 0 1.324219.589844 1.324219 1.324219v3.96875h2.644531v-5.292969c0-1.464844-1.179688-2.644531-2.644531-2.644531zm0 0"/><path d="m4.84375 5.882812-1.75 1.964844 11.90625 10.585938c.5.445312 1.253906.445312 1.75 0l11.910156-10.585938-1.75-1.964844-11.035156 9.804688zm0 0"/><path d="m23.816406 22.082031v-5.292969c0-.367187.292969-.664062.660156-.664062h1.324219c.363281 0 .660157.296875.660157.664062v5.292969c0 .363281-.296876.660157-.660157.660157h-1.324219c-.367187 0-.660156-.296876-.660156-.660157zm0 0"/><path d="m23.816406 25.386719c0-.730469.589844-1.320313 1.320313-1.320313s1.324219.589844 1.324219 1.320313-.59375 1.324219-1.324219 1.324219-1.320313-.59375-1.320313-1.324219zm0 0"/></g></svg>

<?xml version="1.0" encoding="UTF-8"?>
<svg xmlns="http://www.w3.org/2000/svg" xmlns:xlink="http://www.w3.org/1999/xlink" width="32px" height="32px" viewBox="0 0 32 32" version="1.1">
<g id="surface1">
<path style=" stroke:none;fill-rule:nonzero;fill:rgb(25.882354%,25.882354%,25.882354%);fill-opacity:1;" d="M 5.292969 5.542969 C 3.828125 5.542969 2.644531 6.722656 2.644531 8.1875 L 2.644531 24.066406 C 2.644531 25.53125 3.828125 26.710938 5.292969 26.710938 L 21.167969 26.710938 L 21.167969 24.066406 L 6.613281 24.066406 C 5.882812 24.066406 5.292969 23.476562 5.292969 22.742188 L 5.292969 9.511719 C 5.292969 8.777344 5.882812 8.1875 6.613281 8.1875 L 25.136719 8.1875 C 25.871094 8.1875 26.460938 8.777344 26.460938 9.511719 L 26.460938 13.480469 L 29.105469 13.480469 L 29.105469 8.1875 C 29.105469 6.722656 27.925781 5.542969 26.460938 5.542969 Z M 5.292969 5.542969 "/>
<path style=" stroke:none;fill-rule:nonzero;fill:rgb(25.882354%,25.882354%,25.882354%);fill-opacity:1;" d="M 4.84375 5.882812 L 3.09375 7.847656 L 15 18.433594 C 15.5 18.878906 16.253906 18.878906 16.75 18.433594 L 28.660156 7.847656 L 26.910156 5.882812 L 15.875 15.6875 Z M 4.84375 5.882812 "/>
<path style=" stroke:none;fill-rule:nonzero;fill:rgb(25.882354%,25.882354%,25.882354%);fill-opacity:1;" d="M 23.816406 22.082031 L 23.816406 16.789062 C 23.816406 16.421875 24.109375 16.125 24.476562 16.125 L 25.800781 16.125 C 26.164062 16.125 26.460938 16.421875 26.460938 16.789062 L 26.460938 22.082031 C 26.460938 22.445312 26.164062 22.742188 25.800781 22.742188 L 24.476562 22.742188 C 24.109375 22.742188 23.816406 22.445312 23.816406 22.082031 Z M 23.816406 22.082031 "/>
<path style=" stroke:none;fill-rule:nonzero;fill:rgb(25.882354%,25.882354%,25.882354%);fill-opacity:1;" d="M 23.816406 25.386719 C 23.816406 24.65625 24.40625 24.066406 25.136719 24.066406 C 25.867188 24.066406 26.460938 24.65625 26.460938 25.386719 C 26.460938 26.117188 25.867188 26.710938 25.136719 26.710938 C 24.40625 26.710938 23.816406 26.117188 23.816406 25.386719 Z M 23.816406 25.386719 "/>
</g>
</svg>
